X: 37483
T: Sligo Creek
R: reel
M: 4/4
K: Bdorian
f2 ef dBBf|f2 ef defg-|a2 ed cAAA|EAAB cBce|
f2 ef dBBf|f2 ef defg-|a2 ed cAAA|1 B4-Bcde:|2 B4-BcBA||
FBBB Bcde|f2 ef defd|eA (3AAA cBAF|EFAB- BcBA|
GBBB Bcde|f2 ef defd|eaga f2 ec|ABBA B3 A:|

